X: 15384
T: Glass Island
R: reel
M: 4/4
K: Eminor
EFGA BAGF|EFGA B3 B|cGEc GEcG|AFDA FDAF|
BGEB GEBG|BG G2 AF F2|BAGB AFDF|EFGF E4|
EFGA BAGF|EFGA B3 B|cGEc GEcG|AFDA FDAF|
BGEB GEBG|BG G2 AF F2|BAGB AFDF|EFGF EFGA|
Be e2 Bege|ce e2 cege|df f2 dfaf|gaba gfed|
Be e2 Bege|ce e2 cege|df f2 dfab|agfg e4|
Be e2 Bege|ce e2 cege|df f2 dfaf|gaba gfed|
Be e2 Bege|ce e2 cege|df f2 dfab|agfg e4|

